icons/vip-fill.svg

<svg xmlns="http://www.w3.org/2000/svg" width="24" height="24" fill="none"><g clip-path="url(#a)"><g><path fill="#121212" d="M3 3H21C21.2652 3 21.5196 3.10536 21.7071 3.29289C21.8946 3.48043 22 3.73478 22 4V20C22 20.2652 21.8946 20.5196 21.7071 20.7071C21.5196 20.8946 21.2652 21 21 21H3C2.73478 21 2.48043 20.8946 2.29289 20.7071C2.10536 20.5196 2 20.2652 2 20V4C2 3.73478 2.10536 3.48043 2.29289 3.29289C2.48043 3.10536 2.73478 3 3 3ZM11 8.5V15.5H13V8.5H11ZM10.715 8.5H8.601L7.104 12.613L5.607 8.5H3.493L6.104 15.464H8.104L10.715 8.5ZM16 13.5H17.5C18.163 13.5 18.7989 13.2366 19.2678 12.7678C19.7366 12.2989 20 11.663 20 11C20 10.337 19.7366 9.70107 19.2678 9.23223C18.7989 8.76339 18.163 8.5 17.5 8.5H14V15.5H16V13.5ZM16 11.5V10.5H17.5C17.6326 10.5 17.7598 10.5527 17.8536 10.6464C17.9473 10.7402 18 10.8674 18 11C18 11.1326 17.9473 11.2598 17.8536 11.3536C17.7598 11.4473 17.6326 11.5 17.5 11.5H16Z"/></g></g><defs><clipPath id="a"><rect width="24" height="24" fill="white"/></clipPath></defs></svg>

<svg width="24" height="24" fill="none" xmlns="http://www.w3.org/2000/svg"><g clip-path="url(#a)"><path d="M3 3h18a1 1 0 0 1 1 1v16a1 1 0 0 1-1 1H3a1 1 0 0 1-1-1V4a1 1 0 0 1 1-1Zm8 5.5v7h2v-7h-2Zm-.285 0H8.601l-1.497 4.113L5.607 8.5H3.493l2.611 6.964h2L10.715 8.5Zm5.285 5h1.5a2.5 2.5 0 0 0 0-5H14v7h2v-2Zm0-2v-1h1.5a.5.5 0 0 1 0 1H16Z" /></g><defs><clipPath id="a"><path fill="#fff" d="M0 0h24v24H0z"/></clipPath></defs></svg>
